X:1
T:Ojos garços ha la niña
T:Ojos garços ha la niña
T:Juan del Enzina
C:Juan del Enzina
%%score [ 1 2 3 4 ]
L:1/8
Q:1/4=240
M:4/4
K:C
V:1 alto2 nm="Soprano" snm="S"
V:2 alto nm="Alto" snm="A"
V:3 alto nm="Tenor" snm="T"
V:4 bass3 nm="Bass" snm="B"
V:1
 z8 |: z8 | z8 | z8 | z8 | z8 | z8 | z8 | z8 | E6 E2 | E4 E4 | C4 C4 | D8 | C8 | z4 G4 | %15
w: |||||||||O- jos|gar- ços|ha la|ni-|ña,|ha|
w: |||||||||y los|ha- ze|tan es-|qui-|vos,|tan|
 A2 B2 c4- | c4 B4 | c8 | z4 c4 | c8 | c4 B4- | B4 A4 | G4 A4- | A4 ^G4 | A8 | z4 E4 | A8 | %27
w: la _ ni-||ña,|¡quién|se|los e-|* na-|mo- ra-|* rí-|a!|¡quién|se|
w: es- * qui-||vos,|que|ro-|ban el|_ a-|le- grí-||a,|||
 E4 G4- | G4 E4 | E4 D4 | E8 | C8 | z4 c4 | c6 B2 | c2 A2 B4- | B2 A2 A4 | G4 A4- | A4 ^G4 | %38
w: los e-|* na-|mo- ra-|rí-|a!|¡quién|se _|_ los e-|* * na-|mo- ra-|* rí-|
w: |||||||||||
 !fermata!A8 |][M:2/2] E12 E4 | A8 G8 | z4 G4 G2 B2 c4- | c4 B4 c8 | z4 c4 c4 B4- | B2 A2 A8 ^G4 | %45
w: a!|Son tán|lin- dos|y tán _ bi-|* * vos,|y tán bi-||
w: |y so-|lo la|vis- ta _ de-|* * llos|meha ro- ba-||
 A8 z4 E4 | E4 D4 E8 | z4 E4 E4 D4 | E8 E8- | !fermata!E16 :| %50
w: vos, quea|to- * dos|tie- nen ca-|ti- vos|_|
w: do los|sen- ti- dos,|los sen- *|ti- dos.|_|
V:2
 z8 |: E6 E2 | E4 E4 | C4 C4 | D8 | C8 | z4 G,4 | A,2 B,2 C4- | C4 B,4 | C6 B,2 | G,8 | %11
w: |O- jos|gar- ços|ha la|ni-|ña,|ha|la * ni-||ña, *|ha|
w: |y los|ha- ze|tan es-|qui-|vos,|tan|es- * qui-||vos, _|tan|
 A,2 B,2 C4- | C4 B,4 | C8- | C8 | E8 | G8- | G8 | z4 G4 | G8 | G8 | G4 E4 | E4 D4 | E8 | E8 | %25
w: la * ni-||ña,||ni-|ña,||¡quién|se|los|e- na-|mo- ra-|rí-|a!|
w: es- * qui-||vos,|_|es-|qui-|vos,|que|ro-|ban|el a-|le- *|grí-|a,|
 z4 E4 | E6 D2 | E2 C2 D4- | D4 C4 | B,4 A,4 | B,8 | A,8 | G,4 G4 | G8 | G8 | G4 E4 | E4 D4 | E8 | %38
w: ¡quién|se _|los _ e-|* na-|mo- ra-|rí-|a!|¡quién _|se|los|e- na-|mo- ra-|rí-|
w: |||||||||||||
 !fermata!E8 |][M:2/2] G12 G4 | F8 E8 | z4 E4 F4 E4 | G8 G8 | G8 G4 G4 | E4 F4 E8 | z4 C4 C4 B,4- | %46
w: a!|Son tán|lin- dos|y tán _|bi- vos,|y tán tán|bi- * vos,|quea to- dos|
w: |y so-|lo la|vis- ta _|de- llos|la vis- ta|de- * llos|meha ro- ba-|
 B,2 A,2 A,8 ^G,4 | A,4 ^G,4 A,8 | B,8 C8- | C8 !fermata!B,8 :| %50
w: _ tie- nen ca-|ti- vos tie-|nen ca-|ti- vos|
w: * do los sen-|ti- dos, los|sen- ti-|* dos.|
V:3
 z8 |: z8 | z8 | z8 | z8 | z8 | z8 | z8 | z8 | z8 | z8 | z8 | z8 | E6 E2 | E4 E4 | C4 C4 | D8 | %17
w: |||||||||||||O- jos|gar- ços|ha la|ni-|
w: |||||||||||||y los|ha- ze|tan es-|qui-|
 C8 | E8 | E4 E4 | E4 D4- | D4 C4 | B,4 A,4 | B,8 | A,8 | z4 C4 | C6 B,2 | C2 A,2 B,4- | %28
w: ña,|¡quién|se los|e- na-||mo- ra-|rí-|a!|¡quién|se _|_ los e-|
w: vos,|que|ro- ban|el a-||le- *|grí-|a,||||
 B,2 A,2 A,4 | G,4 A,4- | A,4 ^G,4 | A,8 | E8 | E6 D2 | E2 C2 D4- | D4 C4 | B,4 A,4 | B,8 | %38
w: * * na-|mo- ra-|* rí-|a!|¡quién|se _|_ los e-|* na-|mo- ra-|rí-|
w: ||||||||||
 !fermata!A,8 |][M:2/2] C12 C4 | C8 C8 | z4 C4 C8 | D8 C8 | E8 E4 D4 | C4 D4 B,8 | %45
w: a!|Son tán|lin- dos|y tán|bi- vos,|y tán _|bi- * vos,|
w: |y so-|lo la|vis- ta|de- llos|la vis- ta|de- * llos|
 z4 A,4 A,4 ^G,4 | A,8 B,8 | C4 B,4- B,2 A,2 A,4- | A,4 ^G,4 A,8- | A,8 !fermata!G,8 :| %50
w: quea to- *|dos tie-|nen _ _ _ ca-|* * ti-|* vos|
w: meha ro- *|ba- do|los _ _ _ sen-|* * ti-|* dos,|
V:4
 z8 |: z8 | z8 | z8 | z8 | E,6 E,2 | E,4 E,4 | C,4 C,4 | D,8- | C,6 D,2- | E,2- F,2 E,4- | %11
w: |||||O- jos|gar- ços|ha la|ni-|||
w: |||||y los|ha- ze|tan es-|qui-|||
 F,2- G,2- A,4 | G,8 | C,6 C,2 | C,4 C,4 | C,4 C,4 | G,8 | C,8 | C,8 | C,4 C,4 | C,4 G,4- | %21
w: |ña,|O- jos|gar- ços|ha la|ni-|ña,|¡quién|se los|e- na-|
w: |vos,|y los|ha- ze|tan es-|qui-|vos,|que|ro- ban|el a-|
 G,4 A,4 | E,4 F,4 | E,8 | A,,8 | A,8 | A,8 | A,4 G,4- | G,4 A,4 | E,4 F,4 | E,8 | A,,8 | C,8 | %33
w: |mo- ra-|rí-|a!|¡quién|se|los e-|* na-|mo- ra-|rí-|a!|¡quién|
w: |le- *|grí-|a,|_||||||||
 C,4 C,4 | C,4 G,4- | G,4 A,4 | E,4 F,4 | E,8 | !fermata!A,,8 |][M:2/2] C,12 C,4 | F,8 C,8- | %41
w: se los|e- na-||mo- ra-|rí-|a!|Son tán|lin- dos|
w: ||||||y so-|lo la|
 C,4 C,4 F,4 A,4 | G,8 C,8 | C,8 C,4 G,4 | A,4 D,4 E,8 | A,,8 z4 E,4 | F,4 F,4 E,8 | %47
w: _ y tán _|bi- vos,|tán lin- dos|y tán bi-|vos, quea|to- dos tie-|
w: _ vis- ta _|de- llos|so- lo la|vis- ta de-|llos meha|ro- ba- do|
 A,,4 E,4 F,4 F,4 | E,4 E,4 A,,8- | A,,8 !fermata!E,8 :| %50
w: nen ca- ti- vos|ca- * ti-|* vos|
w: los sen- ti- dos,|los sen- ti-|* dos.|

